X: 547
T: Gu changgong
L: 1/16
M: 2/4
K: A
c e2 cB4 [I:setbarnb 1]| 
c e c BA4 | 
A B c2 e c B A | 
B2 F EC4 | 
E2 E F A c B A | 
B B A E F2 F2 | 
B B2 c B c B A | 
F A E F A2 G F | 
C F E CB,4 |]

@@@ Tune index: 9421
